Stemford/img/sections/tehnology/icon/pc.svg

<svg width="43" height="40" viewBox="0 0 43 40" fill="none" xmlns="http://www.w3.org/2000/svg">
<rect x="27" width="16" height="16.8" fill="#FF843F"/>
<path d="M35.625 35.2857H2.375C1.06875 35.2857 0 34.225 0 32.9286V9.35714C0 8.06071 1.06875 7 2.375 7H35.625C36.9313 7 38 8.06071 38 9.35714V32.9286C38 34.225 36.9313 35.2857 35.625 35.2857ZM2.375 9.35714V32.9286H35.625V9.35714H2.375Z" fill="#200B73"/>
<path d="M36.8125 28.2143H1.1875V30.5714H36.8125V28.2143Z" fill="#200B73"/>
<path d="M15.4255 34.1071H13.0505V38.8214H15.4255V34.1071Z" fill="#200B73"/>
<path d="M24.9375 34.1071H22.5625V38.8214H24.9375V34.1071Z" fill="#200B73"/>
<path d="M27.3125 37.6429H10.6875V40H27.3125V37.6429Z" fill="#200B73"/>
<path d="M14.25 21.1426C13.9413 21.1426 13.6325 21.013 13.4069 20.8009C13.3 20.683 13.2169 20.5534 13.1575 20.4119C13.0862 20.2705 13.0625 20.1173 13.0625 19.9641C13.0625 19.8816 13.0744 19.8109 13.0863 19.7284C13.0981 19.6576 13.1219 19.5869 13.1575 19.5162C13.1812 19.4455 13.2169 19.3748 13.2644 19.3041C13.3 19.2451 13.3594 19.1862 13.4069 19.1273C13.7394 18.7973 14.2619 18.6912 14.7013 18.8798C14.8438 18.9387 14.9744 19.0212 15.0931 19.1273C15.3069 19.3512 15.4375 19.6459 15.4375 19.9641C15.4375 20.1173 15.4019 20.2705 15.3425 20.4119C15.2831 20.5534 15.2 20.683 15.0931 20.8009C14.9744 20.9069 14.8438 20.9894 14.7013 21.0484C14.5588 21.1073 14.4044 21.1426 14.25 21.1426Z" fill="#200B73"/>
<path d="M17.8125 19.9643C17.8125 19.3161 18.3469 18.7857 19 18.7857C19.6531 18.7857 20.1875 19.3161 20.1875 19.9643C20.1875 20.6125 19.6531 21.1428 19 21.1428C18.3469 21.1428 17.8125 20.6125 17.8125 19.9643Z" fill="#200B73"/>
<path d="M23.75 21.1428C23.6669 21.1428 23.5956 21.1311 23.5125 21.1193C23.4412 21.1075 23.37 21.0839 23.2988 21.0486C23.2275 21.025 23.1563 20.9896 23.085 20.9425C23.0256 20.8953 22.9663 20.8482 22.9069 20.8011C22.8 20.6832 22.7169 20.5536 22.6575 20.4121C22.5981 20.2707 22.5625 20.1175 22.5625 19.9643C22.5625 19.8818 22.5744 19.8111 22.5863 19.7286C22.5981 19.6578 22.6219 19.5871 22.6575 19.5164C22.6812 19.4457 22.7169 19.375 22.7644 19.3043C22.8 19.2453 22.8594 19.1864 22.9069 19.1275C22.9663 19.0803 23.0256 19.0214 23.085 18.9861C23.1563 18.9389 23.2275 18.9036 23.2988 18.88C23.37 18.8446 23.4412 18.8211 23.5125 18.8093C23.75 18.7621 23.9875 18.7857 24.2012 18.88C24.3437 18.9389 24.4744 19.0214 24.5931 19.1275C24.8069 19.3514 24.9375 19.6578 24.9375 19.9643C24.9375 20.1175 24.9019 20.2707 24.8425 20.4121C24.7831 20.5536 24.7 20.6832 24.5931 20.8011C24.4744 20.9071 24.3437 20.9896 24.2012 21.0486C24.0587 21.1075 23.9044 21.1428 23.75 21.1428Z" fill="#200B73"/>
</svg>

<svg width="43" height="40" fill="none" xmlns="http://www.w3.org/2000/svg"><path fill="#FF843F" d="M27 0h16v16.8H27z"/><path d="M35.625 35.286H2.375C1.069 35.286 0 34.225 0 32.929V9.357C0 8.061 1.069 7 2.375 7h33.25C36.931 7 38 8.06 38 9.357V32.93c0 1.296-1.069 2.357-2.375 2.357zM2.375 9.357V32.93h33.25V9.357H2.375z" fill="#200B73"/><path d="M36.813 28.214H1.187v2.357h35.626v-2.357zm-21.388 5.893H13.05v4.714h2.375v-4.714zm9.513 0h-2.375v4.714h2.375v-4.714z" fill="#200B73"/><path d="M27.313 37.643H10.688V40h16.624v-2.357zm-13.063-16.5c-.309 0-.617-.13-.843-.342a1.36 1.36 0 01-.25-.39.981.981 0 01-.095-.447c0-.082.012-.153.024-.236a.743.743 0 01.072-.212.888.888 0 01.106-.212c.036-.059.095-.118.143-.177.332-.33.855-.436 1.294-.247.143.059.273.141.392.247.214.224.345.519.345.837 0 .153-.036.306-.096.448a1.36 1.36 0 01-.249.389c-.119.106-.25.188-.392.247a1.19 1.19 0 01-.451.095zm3.563-1.179c0-.648.534-1.178 1.187-1.178s1.188.53 1.188 1.178c0 .649-.535 1.179-1.188 1.179-.653 0-1.188-.53-1.188-1.179zm5.937 1.179c-.083 0-.154-.012-.238-.024a.76.76 0 01-.213-.07.905.905 0 01-.214-.107 220.1 220.1 0 00-.178-.14 1.36 1.36 0 01-.25-.39 1.165 1.165 0 01-.095-.448c0-.082.012-.153.024-.235a.743.743 0 01.072-.213.888.888 0 01.106-.212c.036-.059.095-.118.143-.176.06-.048.119-.107.178-.142a.901.901 0 01.214-.106.756.756 0 01.213-.07c.238-.048.476-.024.69.07.142.059.272.141.391.248.214.223.345.53.345.836 0 .154-.036.307-.095.448a1.36 1.36 0 01-.25.39c-.119.105-.25.188-.392.247a1.19 1.19 0 01-.451.094z" fill="#200B73"/></svg>
